svg/config-db.svg

<?xml version="1.0" encoding="UTF-8"?>
<svg xmlns="http://www.w3.org/2000/svg" xmlns:xlink="http://www.w3.org/1999/xlink" width="32.297001" height="32" viewBox="0 0 32.297001 32">
<path fill-rule="nonzero" fill="rgb(19.607843%, 42.352942%, 89.803922%)" fill-opacity="1" d="M 1.636719 17.953125 C 2.101562 17.953125 2.535156 18.09375 2.894531 18.34375 L 4.859375 9.734375 C 4.71875 9.761719 4.578125 9.773438 4.429688 9.773438 C 3.933594 9.773438 3.445312 9.605469 3.058594 9.292969 C 2.824219 9.109375 2.628906 8.878906 2.492188 8.613281 L 0.246094 18.441406 C 0.507812 18.230469 0.816406 18.082031 1.148438 18.007812 C 1.308594 17.96875 1.472656 17.953125 1.636719 17.953125 Z M 17.371094 3.46875 L 25.664062 7.460938 C 25.667969 7.417969 25.667969 7.371094 25.675781 7.328125 C 25.777344 6.410156 26.445312 5.652344 27.34375 5.433594 L 18.277344 1.066406 C 18.519531 1.976562 18.15625 2.941406 17.371094 3.46875 Z M 29.238281 9.292969 C 28.851562 9.605469 28.363281 9.773438 27.867188 9.773438 C 27.722656 9.773438 27.578125 9.761719 27.4375 9.734375 L 29.402344 18.34375 C 29.757812 18.09375 30.191406 17.953125 30.660156 17.953125 C 30.824219 17.953125 30.988281 17.96875 31.148438 18.007812 C 31.488281 18.082031 31.792969 18.238281 32.046875 18.445312 L 29.804688 8.613281 C 29.667969 8.878906 29.472656 9.109375 29.238281 9.292969 Z M 6.621094 7.328125 C 6.628906 7.371094 6.628906 7.417969 6.632812 7.460938 L 14.925781 3.46875 C 14.140625 2.945312 13.777344 1.976562 14.019531 1.066406 L 4.953125 5.433594 C 5.855469 5.648438 6.523438 6.40625 6.621094 7.328125 Z M 30.171875 22.304688 C 29.570312 22.167969 29.054688 21.78125 28.75 21.242188 L 23.21875 28.175781 C 23.816406 28.347656 24.328125 28.765625 24.605469 29.335938 C 24.746094 29.628906 24.820312 29.945312 24.824219 30.269531 L 31.179688 22.296875 C 30.847656 22.375 30.503906 22.378906 30.171875 22.304688 Z M 9.078125 28.175781 L 3.546875 21.242188 C 3.0625 22.097656 2.070312 22.53125 1.113281 22.296875 L 7.472656 30.269531 C 7.476562 29.945312 7.550781 29.628906 7.691406 29.335938 C 7.96875 28.765625 8.480469 28.347656 9.078125 28.175781 Z M 20.636719 31.253906 C 20.363281 30.683594 20.347656 30.023438 20.59375 29.441406 L 11.703125 29.441406 C 11.953125 30.023438 11.9375 30.683594 11.660156 31.253906 C 11.519531 31.546875 11.3125 31.800781 11.066406 32 L 21.226562 32 C 20.976562 31.796875 20.777344 31.542969 20.636719 31.253906 Z M 31.023438 18.5625 C 30.90625 18.535156 30.78125 18.519531 30.660156 18.519531 C 30.238281 18.519531 29.84375 18.683594 29.542969 18.960938 C 29.449219 19.050781 29.363281 19.152344 29.292969 19.261719 L 24.8125 18.242188 C 24.738281 17.015625 23.945312 15.949219 22.792969 15.519531 C 22.777344 14.796875 22.199219 14.207031 21.476562 14.175781 C 21.457031 13.945312 21.414062 13.71875 21.351562 13.5 L 27.019531 8.972656 C 27.277344 9.121094 27.570312 9.203125 27.867188 9.207031 C 28.222656 9.207031 28.582031 9.089844 28.886719 8.851562 C 29.429688 8.417969 29.636719 7.6875 29.40625 7.03125 C 29.175781 6.375 28.558594 5.9375 27.863281 5.9375 C 27.507812 5.9375 27.144531 6.054688 26.84375 6.296875 C 26.3125 6.722656 26.097656 7.433594 26.3125 8.082031 L 20.871094 12.425781 C 19.980469 11.046875 18.320312 10.371094 16.71875 10.742188 L 16.71875 3.167969 C 16.71875 3.167969 16.730469 3.164062 16.734375 3.160156 C 17.367188 2.917969 17.785156 2.3125 17.785156 1.636719 C 17.785156 1.277344 17.667969 0.945312 17.472656 0.679688 C 17.167969 0.25 16.675781 0 16.148438 0 C 15.625 0 15.132812 0.25 14.824219 0.675781 C 14.527344 1.085938 14.4375 1.613281 14.582031 2.101562 C 14.726562 2.585938 15.089844 2.976562 15.5625 3.160156 C 15.570312 3.164062 15.574219 3.167969 15.578125 3.167969 L 15.578125 11.203125 C 15.003906 11.550781 14.527344 12.039062 14.195312 12.625 C 13.378906 12.105469 12.351562 12.050781 11.484375 12.476562 L 5.984375 8.082031 C 6.199219 7.433594 5.988281 6.722656 5.453125 6.296875 C 5.117188 6.023438 4.683594 5.898438 4.253906 5.945312 C 3.820312 5.996094 3.425781 6.210938 3.15625 6.550781 C 2.59375 7.257812 2.707031 8.285156 3.410156 8.851562 C 3.699219 9.082031 4.058594 9.207031 4.429688 9.207031 C 4.625 9.207031 4.820312 9.171875 5.003906 9.101562 C 5.097656 9.066406 5.191406 9.023438 5.277344 8.972656 L 10.566406 13.195312 C 10.15625 13.695312 9.929688 14.320312 9.929688 14.96875 C 9.929688 15.113281 9.941406 15.25 9.964844 15.386719 C 8.589844 15.667969 7.570312 16.839844 7.484375 18.242188 L 3.003906 19.261719 C 2.933594 19.152344 2.851562 19.050781 2.753906 18.964844 C 2.359375 18.589844 1.804688 18.441406 1.273438 18.5625 C 0.460938 18.746094 -0.0820312 19.511719 0.0117188 20.339844 C 0.101562 21.167969 0.804688 21.792969 1.636719 21.789062 C 2.457031 21.789062 3.148438 21.183594 3.257812 20.371094 L 7.625 19.378906 C 8.035156 20.667969 9.234375 21.539062 10.585938 21.539062 L 13.277344 21.539062 L 9.832031 28.667969 C 9.714844 28.65625 9.59375 28.65625 9.476562 28.671875 C 8.925781 28.742188 8.445312 29.085938 8.207031 29.585938 C 7.960938 30.089844 7.992188 30.6875 8.289062 31.164062 C 8.589844 31.640625 9.113281 31.929688 9.675781 31.929688 C 10.269531 31.929688 10.816406 31.613281 11.105469 31.09375 C 11.394531 30.578125 11.382812 29.945312 11.070312 29.441406 C 11.011719 29.339844 10.9375 29.246094 10.855469 29.164062 L 14.542969 21.539062 L 17.757812 21.539062 L 21.183594 28.628906 L 21.3125 28.894531 L 21.441406 29.164062 C 20.972656 29.660156 20.855469 30.394531 21.148438 31.007812 C 21.425781 31.570312 21.996094 31.929688 22.625 31.929688 C 22.863281 31.929688 23.105469 31.878906 23.332031 31.765625 C 23.722656 31.578125 24.023438 31.242188 24.167969 30.835938 C 24.308594 30.425781 24.285156 29.976562 24.09375 29.585938 C 23.796875 28.96875 23.148438 28.605469 22.46875 28.667969 L 22.335938 28.398438 L 22.207031 28.132812 L 19.023438 21.539062 L 21.714844 21.539062 C 23.066406 21.539062 24.265625 20.664062 24.675781 19.375 L 29.039062 20.367188 C 29.058594 20.5 29.089844 20.628906 29.140625 20.75 C 29.332031 21.238281 29.75 21.625 30.300781 21.746094 C 30.417969 21.773438 30.542969 21.789062 30.664062 21.789062 C 31.5 21.792969 32.203125 21.167969 32.296875 20.335938 C 32.390625 19.503906 31.839844 18.738281 31.023438 18.558594 Z M 3.988281 8.128906 C 3.683594 7.882812 3.632812 7.4375 3.875 7.128906 C 4.121094 6.820312 4.566406 6.773438 4.875 7.015625 C 5.023438 7.132812 5.117188 7.304688 5.140625 7.492188 C 5.160156 7.679688 5.105469 7.867188 4.988281 8.015625 C 4.742188 8.324219 4.296875 8.371094 3.988281 8.128906 Z M 1.792969 20.847656 C 1.542969 20.914062 1.277344 20.835938 1.097656 20.648438 C 0.921875 20.457031 0.859375 20.1875 0.9375 19.941406 C 1.015625 19.695312 1.222656 19.511719 1.476562 19.460938 C 1.855469 19.382812 2.226562 19.625 2.3125 20 C 2.398438 20.375 2.167969 20.753906 1.792969 20.847656 Z M 10.316406 30.605469 C 10.234375 30.773438 10.085938 30.90625 9.910156 30.96875 C 9.730469 31.027344 9.535156 31.015625 9.367188 30.933594 C 9.019531 30.761719 8.878906 30.339844 9.046875 29.992188 C 9.214844 29.640625 9.632812 29.492188 9.984375 29.65625 C 10.339844 29.824219 10.488281 30.25 10.316406 30.605469 Z M 15.4375 1.636719 C 15.4375 1.246094 15.753906 0.925781 16.148438 0.925781 C 16.542969 0.925781 16.859375 1.242188 16.859375 1.636719 C 16.855469 2.027344 16.539062 2.339844 16.148438 2.339844 C 15.761719 2.339844 15.441406 2.027344 15.4375 1.636719 Z M 27.421875 7.015625 C 27.730469 6.773438 28.175781 6.820312 28.421875 7.128906 C 28.664062 7.4375 28.613281 7.882812 28.308594 8.128906 C 28 8.375 27.554688 8.324219 27.308594 8.015625 C 27.191406 7.867188 27.136719 7.679688 27.15625 7.492188 C 27.179688 7.304688 27.273438 7.132812 27.421875 7.015625 Z M 23.261719 29.984375 C 23.34375 30.152344 23.355469 30.351562 23.292969 30.527344 C 23.230469 30.707031 23.101562 30.851562 22.929688 30.933594 C 22.578125 31.105469 22.152344 30.957031 21.984375 30.605469 C 21.8125 30.25 21.960938 29.828125 22.3125 29.65625 C 22.664062 29.484375 23.089844 29.632812 23.261719 29.984375 Z M 31.355469 20.3125 C 31.304688 20.566406 31.121094 20.773438 30.875 20.855469 C 30.625 20.933594 30.355469 20.871094 30.167969 20.691406 C 29.976562 20.515625 29.902344 20.246094 29.96875 19.996094 C 30.066406 19.625 30.441406 19.402344 30.8125 19.484375 C 31.1875 19.570312 31.425781 19.9375 31.355469 20.3125 Z M 31.355469 20.3125 "/>
</svg>

<svg role="img" viewBox="0 0 32.297 32" fill="rgb(19.607843%, 42.352942%, 89.803922%)" xmlns="http://www.w3.org/2000/svg"><path d="M1.637 17.953c.465 0 .898.14 1.258.39l1.964-8.609c-.14.028-.28.04-.43.04-.495 0-.984-.169-1.37-.481a2.1 2.1 0 0 1-.567-.68L.246 18.441a2.2 2.2 0 0 1 1.39-.488M17.37 3.47l8.293 3.992c.004-.043.004-.09.012-.133a2.2 2.2 0 0 1 1.668-1.894l-9.067-4.368a2.21 2.21 0 0 1-.906 2.403m11.867 5.824c-.386.312-.875.48-1.37.48q-.219.002-.43-.039l1.964 8.61c.356-.25.79-.39 1.258-.39.164 0 .328.015.488.054.34.074.645.23.899.437l-2.242-9.832a2.1 2.1 0 0 1-.567.68M6.621 7.328c.008.043.008.09.012.133l8.293-3.992a2.21 2.21 0 0 1-.906-2.403L4.953 5.434c.902.214 1.57.972 1.668 1.894m23.55 14.977a2.2 2.2 0 0 1-1.421-1.063l-5.531 6.934c.597.172 1.11.59 1.386 1.16.141.293.215.61.22.934l6.355-7.973a2.25 2.25 0 0 1-1.008.008m-21.093 5.87-5.531-6.933a2.2 2.2 0 0 1-2.434 1.055l6.36 7.973a2.2 2.2 0 0 1 .218-.934c.278-.57.79-.988 1.387-1.16m11.559 3.079a2.2 2.2 0 0 1-.043-1.813h-8.89a2.176 2.176 0 0 1-.64 2.558h10.16a2.2 2.2 0 0 1-.59-.746m10.386-12.692a1.6 1.6 0 0 0-.363-.042c-.422 0-.816.164-1.117.44q-.143.136-.25.302l-4.48-1.02a3.11 3.11 0 0 0-2.02-2.722 1.38 1.38 0 0 0-1.316-1.344 3.6 3.6 0 0 0-.125-.676l5.668-4.527c.257.148.55.23.847.234.356 0 .715-.117 1.02-.355.543-.434.75-1.165.52-1.82a1.633 1.633 0 0 0-2.563-.735c-.532.426-.746 1.137-.532 1.785l-5.44 4.344a3.9 3.9 0 0 0-4.153-1.684V3.168s.011-.004.015-.008a1.63 1.63 0 0 0 1.051-1.523c0-.36-.117-.692-.312-.957a1.634 1.634 0 1 0-1.91 2.48q.01.007.015.008v8.035a3.9 3.9 0 0 0-1.383 1.422 2.77 2.77 0 0 0-2.71-.148l-5.5-4.395a1.625 1.625 0 0 0-.532-1.785 1.62 1.62 0 0 0-1.2-.352 1.638 1.638 0 0 0-.843 2.907 1.63 1.63 0 0 0 1.594.25q.143-.054.273-.13l5.29 4.223c-.41.5-.637 1.125-.637 1.774q0 .214.035.418a3.11 3.11 0 0 0-2.48 2.855l-4.481 1.02q-.104-.166-.25-.297a1.62 1.62 0 0 0-1.48-.402A1.633 1.633 0 0 0 .011 20.34c.09.828.793 1.453 1.625 1.45.82 0 1.511-.606 1.62-1.419l4.368-.992a3.105 3.105 0 0 0 2.96 2.16h2.692l-3.445 7.129a1.635 1.635 0 0 0-1.625.918 1.63 1.63 0 0 0 .082 1.578 1.64 1.64 0 0 0 2.816-.07 1.63 1.63 0 0 0-.035-1.653 1.4 1.4 0 0 0-.215-.277l3.688-7.625h3.215l3.426 7.09.128.266.13.27a1.65 1.65 0 0 0-.294 1.843 1.65 1.65 0 0 0 1.477.922 1.64 1.64 0 0 0 1.543-1.094c.14-.41.117-.86-.074-1.25a1.635 1.635 0 0 0-1.625-.918l-.133-.27-.129-.265-3.184-6.594h2.692c1.351 0 2.55-.875 2.96-2.164l4.364.992c.02.133.05.262.102.383.191.488.609.875 1.16.996a1.634 1.634 0 1 0 .723-3.187ZM3.988 8.13a.717.717 0 0 1-.113-1 .713.713 0 0 1 1.266.363.713.713 0 0 1-1.152.637M1.793 20.848a.711.711 0 1 1-.316-1.387.712.712 0 0 1 .316 1.387m8.523 9.757a.73.73 0 0 1-.406.364.73.73 0 0 1-.543-.035.707.707 0 0 1-.32-.942.707.707 0 0 1 .937-.336.707.707 0 0 1 .332.95m5.121-28.968a.711.711 0 0 1 1.422 0 .712.712 0 0 1-1.422 0m11.985 5.379a.713.713 0 0 1 1 .113.717.717 0 0 1-.113 1 .71.71 0 0 1-1-.113.72.72 0 0 1-.153-.524.72.72 0 0 1 .266-.476m-4.16 22.968a.71.71 0 0 1-.332.95.71.71 0 1 1 .332-.95m8.093-9.672a.72.72 0 0 1-.48.543.71.71 0 0 1-.707-.164.7.7 0 0 1-.2-.695.713.713 0 0 1 1.387.317m0 0"/></svg>
